X:1187
T:Vil du vite hvordan bonden
C:anon.
O:Denmark?
R:Vals, waltz
Z:Transcribed by Frank Nordberg - http://www.musicaviva.com
F:http://abc.musicaviva.com/tunes/denmark/vil-du-vite-hvordan/vil-du-vite-hvordan-1.abc
M:3/4
L:1/8
K:C
EF|"C"G2G2GA|"C"G2E2CD|"C"E2E2EF|"C"E2C2G,G,|
"C"C2C2CD|"C"E2G2E2|"G7"D2F2B,2|"C"C2 z2 EF|
"C"G2GA GA|"C"G2E2CD|"C"E2EF EF|"C"E2C2G,G,|
"C"C2C2D2|"C"E2G2E2|"G7"D2F2B,2|"C"C2 z2|]
W:
W:
W:  From Musica Viva - http://www.musicaviva.com
W:  the Internet center for free sheet music downloads.

